src/topics/icons/coverity.svg

<svg height="252" preserveAspectRatio="xMidYMid" viewBox="0 0 256 252" width="256" xmlns="http://www.w3.org/2000/svg"><g fill="#040707"><path d="m26.9452124 109.078505-3.5133577-9.4523072 37.9592674 70.8923072h.8502075l47.3240494-118.1288396c.837705-2.5631257 8.264518-21.7428083 8.514579-30.2073748.625153-21.83032967-14.09094-23.80581197-29.7697639-19.37973138-51.437558 16.65406598-88.54661782 65.02837608-88.30905982 121.97977978.21255189 52.962931 32.64547012 98.236484 78.65670332 117.378657z"/><path d="m174.328691 5.47201094c-6.314042 12.71560436-13.103199 26.38144076-21.680293 48.08673996l-73.4304277 188.8336021c15.0911844 6.189011 31.6327227 9.602344 48.9619537 9.514823 70.504713-.262564 127.418608-57.664078 127.131038-128.181294-.225055-53.8256415-33.758242-99.6993411-80.982271-118.25387106"/></g></svg>

<?xml version="1.0" encoding="UTF-8" standalone="no"?>
<svg width="256px" height="252px" viewBox="0 0 256 252" version="1.1" xmlns="http://www.w3.org/2000/svg" xmlns:xlink="http://www.w3.org/1999/xlink" preserveAspectRatio="xMidYMid">
	<g fill="#040707">
		<path d="M26.9452124,109.078505 L23.4318547,99.6261978 L61.3911221,170.518505 L62.2413296,170.518505 L109.565379,52.3896654 C110.403084,49.8265397 117.829897,30.6468571 118.079958,22.1822906 C118.705111,0.351960928 103.989018,-1.62352137 88.3101941,2.80255922 C36.8726361,19.4566252 -0.236423721,67.8309353 0.00113427692,124.782339 C0.213686169,177.74527 32.6466044,223.018823 78.6578376,242.160996 L26.9452124,109.078505"></path>
		<path d="M174.328691,5.47201094 C168.014649,18.1876153 161.225492,31.8534517 152.648398,53.5587509 L79.2179703,242.392353 C94.3091547,248.581364 110.850693,251.994697 128.179924,251.907176 C198.684637,251.644612 255.598532,194.243098 255.310962,123.725882 C255.085907,69.9002405 221.55272,24.0265409 174.328691,5.47201094"></path>
	</g>
</svg>
